X:1
T:No9. Il Terremoto
L:1/8
Q:1/4=187
M:3/4
K:Eb
V:1 bass nm="Piano" snm="Pno."
V:1
"^Presto e con tutta forza"!ff! C,6 | C,6 | !wedge!C,2 !wedge!B,,2 !wedge!C,2 | _D,2 C,2 =B,,2 | %4
"_stacc." !wedge!C,2 !wedge!=B,,2 !wedge!C,2 | !wedge!_D,2 !wedge!C,2 !wedge!=D,2 | E,2 D,2 =E,2 | %7
 F,2 =E,2 ^F,2 | G,2 z2 G,2 | C,2 E,2 C,2 | =B,,2 F,4 | E,2 G,2 C2 | F,2 E,2 C,2 | F,2 E,2 C,2 | %14
 F,6 | E,2 z2 z2 | z6 | z2 (C,/=B,,/C,/B,,/ C,/B,,/C,/B,,/) | !wedge!C,2 !wedge!G,,2 !wedge!E,2 | %19
 A,,2 (F,/=E,/F,/E,/ F,/E,/F,/E,/) | !wedge!F,2 !wedge!=B,,2 !wedge!G,2 | %21
 E,2 (A,/G,/A,/G,/ A,/G,/A,/G,/) | !wedge!A,2 !wedge!F,2 !wedge!=B,2 | %23
 (C/4D/4E3/2) !wedge!G,2 (C/4D/4E3/2) | !wedge!_A,2 (C/4D/4E3/2) !wedge!G,2 | %25
 C/4D/4E3/2 !wedge!^F,2 !wedge!F,2 | G,2 z2 z2 | (=B,/4C/4D3/2) (F,/4G,/4_A,3/2) (D,/4E,/4F,3/2) | %28
 (=B,,/4C,/4D,3/2) G,,2 =B,2 | C2 =B,2 C2 | =B,2 G,2 B,2 | C2 =B,2 C2 | =B,2 G,2 B,2 | z2 C2 =B,2 | %34
 C2 _A,4 | (A,,/G,,/A,,/G,,/ A,,/G,,/A,,/G,,/ A,,/G,,/A,,/G,,/) | A,,2 A,2 A,,2 | A,,2 A,2 A,,2 | %38
 (3A,,A,,A,, (3A,A,A, (3A,,A,,A,, | (3A,,A,,A,, (3A,A,A, (3A,,A,,A,, | G,2 z2 z2 | %41
 (D/C/=B,/=A,/) G,2 z2 | z2 (D/C/=B,/=A,/) G,2 | (D/C/=B,/=A,/) G,2 (D,/C,/=B,,/=A,,/) | %44
 G,,2 G,2 G,2 | G,2 _A,4 | F,2 D,2 =A,2 | B,2 C4 | _A,2 F,2 B,2 | E,2 G,2 E,2 | D,2 _A,4 | %51
 G,2 B,2 E2 | A,2 (A,,/G,,/A,,/G,,/ A,,/G,,/A,,/G,,/) | A,,2 A,2 A,2 | %54
 G,2 (E,/D,/E,/D,/ E,/D,/E,/D,/) | E,2 G,2 G,2 | F,2 z2 D,2 | z2 E,2 z2 | z2 A,2 A,2 | =A,4 (B,2 | %60
 B,2) _C4 | z2 =C2 C2 | B,2 =A,4 | B,2 z2 z2 | (G,/4_A,/4B,3/2) (G,/4A,/4B,3/2) (E,/4F,/4G,3/2) | %65
 (B,,/4C,/4D,3/2) (E,/4F,/4G,3/2) (B,,/4C,/4D,3/2) | %66
 (E,/4F,/4G,3/2) (B,,/4C,/4D,3/2) (E,/4F,/4G,3/2) | %67
 (B,,/4C,/4D,3/2) (E,/4F,/4G,3/2) (B,,/4C,/4D,3/2) | %68
 (E,/4F,/4G,3/2) (F,/4G,/4A,3/2) (B,,/4C,/4D,3/2) | !wedge!E,2 !wedge!E,2 !wedge!E,2 | %70
 !wedge!D,2 !wedge!E,2 !wedge!E,2 | !wedge!D,2 !wedge!E,2 !wedge!E,2 | %72
 !wedge!D,2 !wedge!E,2 (B,/A,/G,/F,/) | =E,2 E,2 E,2 | F,2 =E,2 E,2 | F,2 =E,2 E,2 | %76
 F,2 ^F,2 (F,2 | F,2) G,2 (G,2 | G,2) G,,2 z2 | z2 z2 (=B,/C/D/E/) | F2 (D,/E,/F,/G,/) A,2 | %81
 (=B,,/C,/D,/E,/) F,2 (D,/C,/B,,/=A,,/) | G,,2 =B,2 B,2 | C2 z2 z2 | %84
 (G,/_A,/_B,/C/) _D2 (=E,/F,/G,/A,/) | B,2 (G,,/A,,/B,,/C,/) (_D,/C,/B,,/A,,/) | G,,2 =E,2 E,2 | %87
 F,2 (F,/4G,/4A,3/2) (D,/4E,/4F,3/2) | B,,2 D,2 D,2 | z2 E,2 E,2 | z2 =B,2 B,2 | =B,6 | C,6 | C,6 | %94
 !wedge!C,2 !wedge!=B,,2 !wedge!C,2 | _D,2 C,2 =B,,2 | !wedge!C,2 !wedge!=B,,2 !wedge!C,2 | %97
 !wedge!_D,2 !wedge!C,2 !wedge!=D,2 | !wedge!E,2 !wedge!C,2 !wedge!=E,2 | %99
 !wedge!F,2 !wedge!=E,2 !wedge!^F,2 | G,2 z2 G,,2 | C,2 E,2 C,2 | =B,,2 F,4 | =E,2 G,2 _B,2 | %104
 A,2 F,2 =B,2 | C2 C2 C2 | _B,2 B,2 B,2 | A,2 z2 z2 | (3F,,F,,F,, (3F,,F,,F,, (3F,,F,,F,, | %109
 (3F,,F,,F,, (3F,,F,,F,, (3F,,F,,F,, | (3^F,,F,,F,, (3F,,F,,F,, (3F,,F,,F,, | %111
 (3^F,,F,,F,, (3F,,F,,F,, (3F,,F,,F,, | G,,2 z2 z2 | G,,2 z2 z2 | (3C,C,C, (3=B,,B,,B,, (3C,C,C, | %115
 (3_D,D,D, (3C,C,C, (3=B,,B,,B,, | (3C,C,C, (3=B,,B,,B,, (3C,C,C, | %117
 (3_D,D,D, (3C,C,C, (3=B,,B,,B,, | C,2 z2 z2 |!fff! C,6 | C,6 | C,2 C,2 C,2 | C,2 z2 z2 |] %123

